assets/img/braze_icons/clock-rewind.svg

<svg fill="none" height="24" viewBox="0 0 24 24" width="24" xmlns="http://www.w3.org/2000/svg"><g fill="#801ed7"><path d="m12 4c-4.41828 0-8 3.58172-8 8 0 4.4183 3.58172 8 8 8 3.7912 0 6.9664-2.6371 7.7914-6.1771l-.3844.3843c-.3906.3905-1.0238.3904-1.4143-.0002-.3904-.3906-.3903-1.0237.0002-1.4142l2.0006-2c.1876-.1875.442-.2928.7072-.2928s.5195.1054.7071.293l1.9994 2c.3904.3906.3903 1.0237-.0002 1.4142-.3906.3905-1.0238.3904-1.4143-.0002l-.1951-.1952c-.9311 4.5586-4.9638 7.9882-9.7976 7.9882-5.52285 0-10-4.4772-10-10 0-5.52285 4.47715-10 10-10 3.67 0 6.8771 1.97759 8.6155 4.92048.2809.47551.1231 1.08871-.3524 1.36961-.4755.28089-1.0887.12313-1.3696-.35239-1.3935-2.35901-3.9597-3.9377-6.8935-3.9377z"/><path d="m13 7c0-.55228-.4477-1-1-1s-1 .44772-1 1v5c0 .3344.1671.6466.4453.8321l3 2c.4595.3063 1.0804.1821 1.3868-.2774.3063-.4595.1821-1.0804-.2774-1.3868l-2.5547-1.7031z"/></g></svg>

<svg width="24" height="24" viewBox="0 0 24 24" fill="none" xmlns="http://www.w3.org/2000/svg">
<path d="M12 4C7.58172 4 4 7.58172 4 12C4 16.4183 7.58172 20 12 20C15.7912 20 18.9664 17.3629 19.7914 13.8229L19.407 14.2072C19.0164 14.5977 18.3832 14.5976 17.9927 14.207C17.6023 13.8164 17.6024 13.1833 17.9929 12.7928L19.9935 10.7928C20.1811 10.6053 20.4355 10.5 20.7007 10.5C20.9659 10.5 21.2202 10.6054 21.4078 10.793L23.4072 12.793C23.7976 13.1836 23.7975 13.8167 23.407 14.2072C23.0164 14.5977 22.3832 14.5976 21.9927 14.207L21.7976 14.0118C20.8665 18.5704 16.8338 22 12 22C6.47715 22 2 17.5228 2 12C2 6.47715 6.47715 2 12 2C15.67 2 18.8771 3.97759 20.6155 6.92048C20.8964 7.39599 20.7386 8.00919 20.2631 8.29009C19.7876 8.57098 19.1744 8.41322 18.8935 7.9377C17.5 5.57869 14.9338 4 12 4Z" fill="#801ED7"/>
<path d="M13 7C13 6.44772 12.5523 6 12 6C11.4477 6 11 6.44772 11 7V12C11 12.3344 11.1671 12.6466 11.4453 12.8321L14.4453 14.8321C14.9048 15.1384 15.5257 15.0142 15.8321 14.5547C16.1384 14.0952 16.0142 13.4743 15.5547 13.1679L13 11.4648V7Z" fill="#801ED7"/>
</svg>
